X:155
T: Marias Wiegenlied und das Resonet
N: A0521B
O: Europa, Mitteleuropa, Deutschland
N: J. Walthers Gsgb. 1544 No. 40.
R: Romanze, Ballade, Lied, religioeses Lied
M: 6/4
L: 1/4
K: F
 |  | c2AF2A | c2dc3
c2AF2A | c2dc3
B2BB2c | B2AG2
A | c2AF2A | G2FG2A | F2EF3
c3A3 | c3A3 | F2GA2B | A2GA3
F2GA2B | A2GA2A | F2EF3
c2cc2c | f2ed2
c | f2ed2c | c2=Bc3
F2GA2_B | c2BA2
G | A2GF2E | F3-F3

